X:155
T:Pay the Reckoning   
B:CRE1.019 (Ioc an Reicneail)
F:file ID: cre.1/155pay_r
S:John Potts
N:This is one of "Squire" Jackson's tunes.
M:6/8
Q:160
R:jig
K:G
G2e dBG|BAA dBG|G2e dBG|AGA BGD|
G2e dBG|BAB deg|age dBG|AGA BGD:|
gag f2f|ede def|gfg efg|aga bge|
gbg a2g|edB deg|age dBG|AGA BGD:|

%%%

